assets/icons/utility/record_lookup.svg

<?xml version="1.0"?><svg xmlns="http://www.w3.org/2000/svg" width="52" height="52" viewBox="0 0 52 52"><g fill="#fff"><path d="m17.2 11.6h17.6c0.9 0 1.6-0.7 1.6-1.6v-3.2c0-2.6-2.2-4.8-4.8-4.8h-11.2c-2.6 0-4.8 2.2-4.8 4.8v3.2c0 0.9 0.7 1.6 1.6 1.6z m26.4-5.6h-1.6c-0.5 0-0.8 0.3-0.8 0.8v3.2c0 3.5-2.9 6.4-6.4 6.4h-17.6c-3.5 0-6.4-2.9-6.4-6.4v-3.2c0-0.5-0.3-0.8-0.8-0.8h-1.6c-2.6 0-4.8 2.2-4.8 4.8v34.4c0 2.6 2.2 4.8 4.8 4.8h35.2c2.6 0 4.8-2.2 4.8-4.8v-34.4c0-2.6-2.2-4.8-4.8-4.8z m-6.1 38.1l-1 1c-0.3 0.3-0.7 0.3-1 0l-6.5-6.5c-1.9 1.3-4.2 2-6.7 1.6-4.2-0.6-7.5-4.1-7.9-8.3-0.6-5.8 4.3-10.7 10.1-10.1 4.3 0.4 7.7 3.7 8.3 7.9 0.4 2.5-0.3 4.9-1.6 6.7l6.5 6.5c0.1 0.4 0.1 0.8-0.2 1.2z m-14-19.3c-3.5 0-6.3 2.9-6.3 6.3 0 3.5 2.8 6.3 6.3 6.3s6.3-2.8 6.3-6.3-2.8-6.3-6.3-6.3z"></path></g></svg>

<svg xmlns="http://www.w3.org/2000/svg" x="0px" y="0px"
	 width="52px" height="52px" viewBox="0 0 52 52" enable-background="new 0 0 52 52" xml:space="preserve">
<g>
	<path fill="#FFFFFF" d="M17.2,11.6h17.6c0.9,0,1.6-0.7,1.6-1.6V6.8c0-2.6-2.2-4.8-4.8-4.8H20.4c-2.6,0-4.8,2.2-4.8,4.8V10
		C15.6,10.9,16.3,11.6,17.2,11.6z"/>
	<path fill="#FFFFFF" d="M43.6,6H42c-0.5,0-0.8,0.3-0.8,0.8V10c0,3.5-2.9,6.4-6.4,6.4H17.2c-3.5,0-6.4-2.9-6.4-6.4V6.8
		C10.8,6.3,10.5,6,10,6H8.4c-2.6,0-4.8,2.2-4.8,4.8v34.4c0,2.6,2.2,4.8,4.8,4.8h35.2c2.6,0,4.8-2.2,4.8-4.8V10.8
		C48.4,8.2,46.2,6,43.6,6z M37.5,44.1l-1,1c-0.3,0.3-0.7,0.3-1,0l-6.5-6.5c-1.9,1.3-4.2,2-6.7,1.6c-4.2-0.6-7.5-4.1-7.9-8.3
		c-0.6-5.8,4.3-10.7,10.1-10.1c4.3,0.4,7.7,3.7,8.3,7.9c0.4,2.5-0.3,4.9-1.6,6.7l6.5,6.5C37.8,43.3,37.8,43.7,37.5,44.1z"/>
	<path fill="#FFFFFF" d="M23.5,24.8c-3.5,0-6.3,2.9-6.3,6.3c0,3.5,2.8,6.3,6.3,6.3c3.5,0,6.3-2.8,6.3-6.3
		C29.8,27.6,27,24.8,23.5,24.8z"/>
</g>
</svg>
